<?xml version="1.0" encoding="UTF-8"?>
<map version="1.10" tiledversion="1.12.2" orientation="orthogonal" renderorder="right-down" width="30" height="20" tilewidth="20" tileheight="20" infinite="1" nextlayerid="10" nextobjectid="21">
 <editorsettings>
  <export target="H23.tmj" format="json"/>
 </editorsettings>
 <tileset firstgid="1" source="bg_sanscorridor.tsx"/>
 <tileset firstgid="61" source="bg_castle_realdoor.tsx"/>
 <tileset firstgid="81" source="spr_savepoint_0.tsx"/>
 <layer id="1" name="background" width="70" height="12">
  <data encoding="csv"/>
 </layer>
 <layer id="2" name="Piso" width="70" height="12">
  <data encoding="csv">
   <chunk x="0" y="0" width="16" height="16">
0,0,0,0,0,0,0,0,0,0,0,0,0,0,0,40,
0,0,0,0,0,57,57,0,0,57,57,57,57,0,40,40,
0,0,0,0,0,57,57,0,0,57,57,57,57,40,40,40,
0,0,0,0,0,57,57,0,0,57,57,57,57,40,40,40,
0,0,0,0,0,0,0,0,0,0,0,0,0,40,40,40,
0,0,0,0,0,41,41,0,0,41,41,41,41,41,41,52,
0,0,0,0,0,0,0,55,56,55,56,55,56,0,53,54,
0,0,0,0,0,58,0,58,59,58,59,58,46,49,46,53,
0,0,0,0,0,55,56,55,56,55,58,55,49,19,20,54,
0,0,0,0,0,58,59,58,59,58,55,56,46,22,23,53,
0,0,0,0,0,0,0,0,0,0,0,0,0,0,0,0,
0,0,0,0,0,0,0,0,0,0,0,0,0,0,0,0,
0,0,0,0,0,0,0,0,0,0,0,0,0,0,0,0,
0,0,0,0,0,0,0,0,0,0,0,0,0,0,0,0,
0,0,0,0,0,0,0,0,0,0,0,0,0,0,0,0,
0,0,0,0,0,0,0,0,0,0,0,0,0,0,0,0
</chunk>
   <chunk x="16" y="0" width="16" height="16">
40,40,0,0,0,40,40,40,0,0,0,40,40,40,0,0,
40,40,40,0,40,40,40,40,40,40,40,40,40,40,40,40,
40,40,40,40,40,40,40,40,40,40,40,40,40,40,40,40,
40,40,40,40,40,40,40,40,40,40,40,40,40,40,40,40,
40,40,40,40,40,40,40,40,40,40,40,40,40,40,40,40,
52,52,41,41,41,52,52,52,41,41,41,52,52,52,41,41,
53,54,54,0,53,54,53,54,53,0,53,54,53,54,53,0,
54,53,50,49,50,53,54,53,50,49,50,53,54,53,50,49,
53,54,49,19,20,54,53,54,49,19,20,54,53,54,49,19,
54,53,50,22,23,53,54,53,50,22,23,53,54,53,50,22,
0,0,0,0,0,0,0,0,0,0,0,0,0,0,0,0,
0,0,0,0,0,0,0,0,0,0,0,0,0,0,0,0,
0,0,0,0,0,0,0,0,0,0,0,0,0,0,0,0,
0,0,0,0,0,0,0,0,0,0,0,0,0,0,0,0,
0,0,0,0,0,0,0,0,0,0,0,0,0,0,0,0,
0,0,0,0,0,0,0,0,0,0,0,0,0,0,0,0
</chunk>
   <chunk x="32" y="0" width="16" height="16">
0,40,40,40,0,0,0,40,40,40,0,0,0,40,40,40,
40,40,40,40,40,40,40,40,40,40,40,40,40,40,40,40,
40,40,40,0,40,40,40,40,40,40,40,40,40,40,40,40,
40,40,40,0,40,40,40,40,40,40,40,40,40,40,40,40,
40,40,40,0,40,40,40,40,40,40,40,40,40,40,40,40,
41,52,52,52,41,41,41,52,52,52,41,41,41,52,52,52,
53,54,53,54,53,46,53,54,53,54,53,46,53,54,53,54,
50,53,54,53,46,49,46,53,54,53,46,49,46,53,54,53,
20,54,53,54,49,46,49,54,53,54,49,46,49,54,53,54,
23,53,54,53,50,49,50,53,54,53,50,49,50,53,54,53,
0,0,0,0,0,0,0,0,0,0,0,0,0,0,0,0,
0,0,0,0,0,0,0,0,0,0,0,0,0,0,0,0,
0,0,0,0,0,0,0,0,0,0,0,0,0,0,0,0,
0,0,0,0,0,0,0,0,0,0,0,0,0,0,0,0,
0,0,0,0,0,0,0,0,0,0,0,0,0,0,0,0,
0,0,0,0,0,0,0,0,0,0,0,0,0,0,0,0
</chunk>
   <chunk x="48" y="0" width="16" height="16">
0,0,0,40,40,40,0,0,0,0,0,0,0,0,0,0,
40,40,40,40,40,40,40,40,40,57,57,57,57,57,57,57,
40,40,40,40,40,40,40,40,40,57,57,57,57,0,0,57,
40,40,40,40,40,40,40,40,40,57,57,57,57,0,0,57,
40,40,40,40,40,40,40,40,40,57,57,57,57,0,0,57,
41,41,41,52,52,52,41,41,41,60,60,60,60,0,0,60,
53,46,53,54,53,54,53,46,56,55,56,55,56,55,56,55,
46,49,46,53,54,53,46,49,46,58,59,58,59,58,59,58,
49,46,49,54,53,54,49,46,49,55,56,55,56,55,56,55,
50,49,50,53,54,53,50,49,50,58,59,58,59,58,59,58,
0,0,0,0,0,0,0,0,0,0,0,0,0,0,0,0,
0,0,0,0,0,0,0,0,0,0,0,0,0,0,0,0,
0,0,0,0,0,0,0,0,0,0,0,0,0,0,0,0,
0,0,0,0,0,0,0,0,0,0,0,0,0,0,0,0,
0,0,0,0,0,0,0,0,0,0,0,0,0,0,0,0,
0,0,0,0,0,0,0,0,0,0,0,0,0,0,0,0
</chunk>
   <chunk x="64" y="0" width="16" height="16">
0,0,0,0,0,0,0,0,0,0,0,0,0,0,0,0,
57,0,0,0,0,0,0,0,0,0,0,0,0,0,0,0,
57,0,0,0,0,0,0,0,0,0,0,0,0,0,0,0,
57,0,0,0,0,0,0,0,0,0,0,0,0,0,0,0,
57,0,0,0,0,0,0,0,0,0,0,0,0,0,0,0,
60,0,0,0,0,0,0,0,0,0,0,0,0,0,0,0,
56,0,0,0,0,0,0,0,0,0,0,0,0,0,0,0,
59,0,0,0,0,0,0,0,0,0,0,0,0,0,0,0,
56,0,0,0,0,0,0,0,0,0,0,0,0,0,0,0,
59,0,0,0,0,0,0,0,0,0,0,0,0,0,0,0,
0,0,0,0,0,0,0,0,0,0,0,0,0,0,0,0,
0,0,0,0,0,0,0,0,0,0,0,0,0,0,0,0,
0,0,0,0,0,0,0,0,0,0,0,0,0,0,0,0,
0,0,0,0,0,0,0,0,0,0,0,0,0,0,0,0,
0,0,0,0,0,0,0,0,0,0,0,0,0,0,0,0,
0,0,0,0,0,0,0,0,0,0,0,0,0,0,0,0
</chunk>
  </data>
 </layer>
 <layer id="3" name="Detalles-Piso" width="70" height="12">
  <data encoding="csv">
   <chunk x="0" y="0" width="16" height="16">
0,0,0,0,0,0,0,0,0,0,0,0,0,0,0,0,
0,0,0,0,0,0,0,0,0,0,0,0,0,0,0,0,
0,0,0,0,0,0,0,0,0,0,0,0,0,0,0,0,
0,0,0,0,0,0,0,0,0,0,0,0,0,0,0,0,
0,0,0,0,0,57,57,0,0,57,57,57,57,0,0,0,
0,0,0,0,0,60,60,0,0,60,60,60,60,0,0,0,
0,0,0,0,0,55,56,0,0,0,0,0,0,0,0,0,
0,0,0,0,0,58,59,0,0,0,0,0,0,0,0,0,
0,0,0,0,0,81,0,0,0,0,0,0,0,0,0,0,
0,0,0,0,0,0,0,0,0,0,0,0,0,0,0,0,
0,0,0,0,0,0,0,0,0,0,0,0,0,0,0,0,
0,0,0,0,0,0,0,0,0,0,0,0,0,0,0,0,
0,0,0,0,0,0,0,0,0,0,0,0,0,0,0,0,
0,0,0,0,0,0,0,0,0,0,0,0,0,0,0,0,
0,0,0,0,0,0,0,0,0,0,0,0,0,0,0,0,
0,0,0,0,0,0,0,0,0,0,0,0,0,0,0,0
</chunk>
  </data>
 </layer>
 <layer id="4" name="Paredes" width="70" height="12">
  <data encoding="csv">
   <chunk x="0" y="0" width="16" height="16">
0,0,0,0,0,0,0,0,0,0,0,0,0,0,0,25,
0,0,0,0,0,0,61,62,63,64,0,0,1,2,3,28,
0,0,0,0,0,0,65,66,67,68,0,0,4,5,6,31,
0,0,0,0,0,0,69,70,71,72,0,0,7,8,9,34,
0,0,0,0,0,0,73,74,75,76,0,0,10,11,12,37,
0,0,0,0,0,0,77,78,79,80,0,0,13,14,15,0,
0,0,0,0,0,0,0,0,0,0,0,0,16,17,18,0,
0,0,0,0,0,0,0,0,0,0,0,0,0,0,0,0,
0,0,0,0,0,0,0,0,0,0,0,0,0,0,0,0,
0,0,0,0,0,0,0,0,0,0,0,0,0,0,0,0,
0,0,0,0,0,0,0,0,0,0,0,0,0,0,0,0,
0,0,0,0,0,0,0,0,0,0,0,0,0,0,0,0,
0,0,0,0,0,0,0,0,0,0,0,0,0,0,0,0,
0,0,0,0,0,0,0,0,0,0,0,0,0,0,0,0,
0,0,0,0,0,0,0,0,0,0,0,0,0,0,0,0,
0,0,0,0,0,0,0,0,0,0,0,0,0,0,0,0
</chunk>
   <chunk x="16" y="0" width="16" height="16">
26,27,0,0,0,25,26,27,0,0,0,25,26,27,0,0,
29,30,1,2,3,28,29,30,1,2,3,28,29,30,1,2,
32,33,4,5,6,31,32,33,4,5,6,31,32,33,4,5,
35,36,7,8,9,34,35,36,7,8,9,34,35,36,7,8,
38,39,10,11,12,37,38,39,10,11,12,37,38,39,10,11,
0,0,13,14,15,0,0,0,13,14,15,0,0,0,13,14,
0,0,16,17,18,0,0,0,16,17,18,0,0,0,16,17,
0,0,0,0,0,0,0,0,0,0,0,0,0,0,0,0,
0,0,0,0,0,0,0,0,0,0,0,0,0,0,0,0,
0,0,0,0,0,0,0,0,0,0,0,0,0,0,0,0,
0,0,0,0,0,0,0,0,0,0,0,0,0,0,0,0,
0,0,0,0,0,0,0,0,0,0,0,0,0,0,0,0,
0,0,0,0,0,0,0,0,0,0,0,0,0,0,0,0,
0,0,0,0,0,0,0,0,0,0,0,0,0,0,0,0,
0,0,0,0,0,0,0,0,0,0,0,0,0,0,0,0,
0,0,0,0,0,0,0,0,0,0,0,0,0,0,0,0
</chunk>
   <chunk x="32" y="0" width="16" height="16">
0,25,26,27,0,0,0,25,26,27,0,0,0,25,26,27,
3,28,29,30,1,2,3,28,29,30,1,2,3,28,29,30,
6,31,32,33,4,5,6,31,32,33,4,5,6,31,32,33,
9,34,35,36,7,8,9,34,35,36,7,8,9,34,35,36,
12,37,38,39,10,11,12,37,38,39,10,11,12,37,38,39,
15,0,0,0,13,14,15,0,0,0,13,14,15,0,0,0,
18,0,0,0,16,17,18,0,0,0,16,17,18,0,0,0,
0,0,0,0,0,0,0,0,0,0,0,0,0,0,0,0,
0,0,0,0,0,0,0,0,0,0,0,0,0,0,0,0,
0,0,0,0,0,0,0,0,0,0,0,0,0,0,0,0,
0,0,0,0,0,0,0,0,0,0,0,0,0,0,0,0,
0,0,0,0,0,0,0,0,0,0,0,0,0,0,0,0,
0,0,0,0,0,0,0,0,0,0,0,0,0,0,0,0,
0,0,0,0,0,0,0,0,0,0,0,0,0,0,0,0,
0,0,0,0,0,0,0,0,0,0,0,0,0,0,0,0,
0,0,0,0,0,0,0,0,0,0,0,0,0,0,0,0
</chunk>
   <chunk x="48" y="0" width="16" height="16">
0,0,0,25,26,27,0,0,0,0,0,0,0,0,0,0,
1,2,3,28,29,30,1,2,3,0,0,0,61,62,63,64,
4,5,6,31,32,33,4,5,6,0,0,0,65,66,67,68,
7,8,9,34,35,36,7,8,9,0,0,0,69,70,71,72,
10,11,12,37,38,39,10,11,12,0,0,0,73,74,75,76,
13,14,15,0,0,0,13,14,15,0,0,0,77,78,79,80,
16,17,18,0,0,0,16,17,18,0,0,0,0,0,0,0,
0,0,0,0,0,0,0,0,0,0,0,0,0,0,0,0,
0,0,0,0,0,0,0,0,0,0,0,0,0,0,0,0,
0,0,0,0,0,0,0,0,0,0,0,0,0,0,0,0,
0,0,0,0,0,0,0,0,0,0,0,0,0,0,0,0,
0,0,0,0,0,0,0,0,0,0,0,0,0,0,0,0,
0,0,0,0,0,0,0,0,0,0,0,0,0,0,0,0,
0,0,0,0,0,0,0,0,0,0,0,0,0,0,0,0,
0,0,0,0,0,0,0,0,0,0,0,0,0,0,0,0,
0,0,0,0,0,0,0,0,0,0,0,0,0,0,0,0
</chunk>
  </data>
 </layer>
 <layer id="5" name="Objeto" width="70" height="12">
  <data encoding="csv">
   <chunk x="0" y="0" width="16" height="16">
0,0,0,0,0,0,0,0,0,0,0,0,0,0,0,43,
0,0,0,0,0,0,0,0,0,0,0,0,0,0,0,0,
0,0,0,0,0,0,0,0,0,0,0,0,0,0,0,0,
0,0,0,0,0,0,0,0,0,0,0,0,0,0,0,0,
0,0,0,0,0,0,0,0,0,0,0,0,0,0,0,0,
0,0,0,0,0,0,0,0,0,0,0,0,0,0,0,0,
0,0,0,0,0,0,0,0,0,0,0,0,0,0,0,0,
0,0,0,0,0,0,0,0,0,0,0,0,0,0,0,0,
0,0,0,0,0,0,0,0,0,0,0,0,0,0,0,0,
0,0,0,0,0,0,0,0,0,0,0,0,0,0,0,0,
0,0,0,0,0,0,0,0,0,0,0,0,0,0,0,0,
0,0,0,0,0,0,0,0,0,0,0,0,0,0,0,0,
0,0,0,0,0,0,0,0,0,0,0,0,0,0,0,0,
0,0,0,0,0,0,0,0,0,0,0,0,0,0,0,0,
0,0,0,0,0,0,0,0,0,0,0,0,0,0,0,0,
0,0,0,0,0,0,0,0,0,0,0,0,0,0,0,0
</chunk>
   <chunk x="16" y="0" width="16" height="16">
0,45,0,0,0,43,0,45,0,0,0,43,0,45,0,0,
0,0,0,0,0,0,0,0,0,0,0,0,0,0,0,0,
0,0,0,0,0,0,0,0,0,0,0,0,0,0,0,0,
0,0,0,0,0,0,0,0,0,0,0,0,0,0,0,0,
0,0,0,0,0,0,0,0,0,0,0,0,0,0,0,0,
0,0,0,0,0,0,0,0,0,0,0,0,0,0,0,0,
0,0,0,0,0,0,0,0,0,0,0,0,0,0,0,0,
0,0,0,0,0,0,0,0,0,0,0,0,0,0,0,0,
0,0,0,0,0,0,0,0,0,0,0,0,0,0,0,0,
0,0,0,0,0,0,0,0,0,0,0,0,0,0,0,0,
0,0,0,0,0,0,0,0,0,0,0,0,0,0,0,0,
0,0,0,0,0,0,0,0,0,0,0,0,0,0,0,0,
0,0,0,0,0,0,0,0,0,0,0,0,0,0,0,0,
0,0,0,0,0,0,0,0,0,0,0,0,0,0,0,0,
0,0,0,0,0,0,0,0,0,0,0,0,0,0,0,0,
0,0,0,0,0,0,0,0,0,0,0,0,0,0,0,0
</chunk>
   <chunk x="32" y="0" width="16" height="16">
0,43,0,45,0,0,0,43,0,45,0,0,0,43,0,45,
0,0,0,0,0,0,0,0,0,0,0,0,0,0,0,0,
0,0,0,0,0,0,0,0,0,0,0,0,0,0,0,0,
0,0,0,0,0,0,0,0,0,0,0,0,0,0,0,0,
0,0,0,0,0,0,0,0,0,0,0,0,0,0,0,0,
0,0,0,0,0,0,0,0,0,0,0,0,0,0,0,0,
0,0,0,0,0,0,0,0,0,0,0,0,0,0,0,0,
0,0,0,0,0,0,0,0,0,0,0,0,0,0,0,0,
0,0,0,0,0,0,0,0,0,0,0,0,0,0,0,0,
0,0,0,0,0,0,0,0,0,0,0,0,0,0,0,0,
0,0,0,0,0,0,0,0,0,0,0,0,0,0,0,0,
0,0,0,0,0,0,0,0,0,0,0,0,0,0,0,0,
0,0,0,0,0,0,0,0,0,0,0,0,0,0,0,0,
0,0,0,0,0,0,0,0,0,0,0,0,0,0,0,0,
0,0,0,0,0,0,0,0,0,0,0,0,0,0,0,0,
0,0,0,0,0,0,0,0,0,0,0,0,0,0,0,0
</chunk>
   <chunk x="48" y="0" width="16" height="16">
0,0,0,43,0,45,0,0,0,0,0,0,0,0,0,0,
0,0,0,0,0,0,0,0,0,0,0,0,0,0,0,0,
0,0,0,0,0,0,0,0,0,0,0,0,0,0,0,0,
0,0,0,0,0,0,0,0,0,0,0,0,0,0,0,0,
0,0,0,0,0,0,0,0,0,0,0,0,0,0,0,0,
0,0,0,0,0,0,0,0,0,0,0,0,0,0,0,0,
0,0,0,0,0,0,0,0,0,0,0,0,0,0,0,0,
0,0,0,0,0,0,0,0,0,0,0,0,0,0,0,0,
0,0,0,0,0,0,0,0,0,0,0,0,0,0,0,0,
0,0,0,0,0,0,0,0,0,0,0,0,0,0,0,0,
0,0,0,0,0,0,0,0,0,0,0,0,0,0,0,0,
0,0,0,0,0,0,0,0,0,0,0,0,0,0,0,0,
0,0,0,0,0,0,0,0,0,0,0,0,0,0,0,0,
0,0,0,0,0,0,0,0,0,0,0,0,0,0,0,0,
0,0,0,0,0,0,0,0,0,0,0,0,0,0,0,0,
0,0,0,0,0,0,0,0,0,0,0,0,0,0,0,0
</chunk>
  </data>
 </layer>
 <objectgroup id="6" name="Interactuable">
  <object id="1" x="80" y="120" width="20" height="80"/>
  <object id="2" x="100" y="21.75" width="40" height="86.5"/>
  <object id="3" x="100" y="200" width="20" height="20"/>
  <object id="4" x="100" y="200" width="1200" height="20"/>
  <object id="5" x="180" y="-0.5" width="1038.33" height="108"/>
  <object id="6" x="240.5" y="108" width="60" height="27.25"/>
  <object id="7" x="360" y="108" width="60" height="27.5"/>
  <object id="8" x="479.75" y="106.5" width="60" height="27.75"/>
  <object id="9" x="599.75" y="103.75" width="60" height="31.25"/>
  <object id="10" x="719.5" y="106.25" width="60" height="28.75"/>
  <object id="11" x="840" y="103.75" width="60" height="30.75"/>
  <object id="12" x="959.75" y="105.5" width="60" height="30"/>
  <object id="13" x="1080.25" y="103.5" width="60" height="30.75"/>
  <object id="14" x="1260" y="86.5" width="40" height="20"/>
  <object id="15" x="1300" y="110.75" width="20" height="89.25"/>
 </objectgroup>
 <objectgroup id="7" name="Interactuable-Piso">
  <object id="16" name="41" x="149" y="128.5" width="20" height="20"/>
  <object id="19" name="PEL1" x="1046.83" y="108.25" width="31" height="90.8333"/>
  <object id="20" name="GUA5" x="110.182" y="170.364"/>
 </objectgroup>
 <objectgroup id="8" name="Interactuable-Pared"/>
 <objectgroup id="9" name="Doors">
  <object id="18" name="ph43" x="1220.83" y="40.3541" width="40" height="78.9584">
   <properties>
    <property name="direction" value="down"/>
    <property name="targetDoor" type="int" value="42"/>
    <property name="targetMap" value="H23"/>
   </properties>
  </object>
  <object id="17" name="ph42" x="140.667" y="44.8541" width="37.6667" height="75.2917">
   <properties>
    <property name="direction" value="down"/>
    <property name="targetDoor" type="int" value="41"/>
    <property name="targetMap" value="H22"/>
   </properties>
  </object>
 </objectgroup>
</map>
